!!!OTL: 169a. Haesleins Klage.
!!!ARE: Europa, Mitteleuropa, Deutschland, Schlesien, Neisse
!!!SCT: E0169A
!!!TXL: @@DE
!!!YEM: Copyright 1995, estate of Helmut Schaffrath.
**kern	**text
*ICvox	*
*M2/4	*
*k[b-]	*
*F:	*
!LO:TX:a:t=Mäßig	!
!LO:TX:a:t=Aus Schleſten (Neiße.)	!
{8c	Jch
=1	=1
4f	ar-
8a	-mes
8a	Wald-
=2	=2
8.g	-hä-
16g	-ſe-
8cc}	-lein
{8b-	auf
=3	=3
4a	frei-
4g	-em
=4	=4
4f	Feld,
8r}	.
{8c	wie
=5	=5
8f	wird
8f	mir
8a	doch
8a	ſo
=6	=6
4g	grau-
8ccL}	-ſam
{8b-J	.
=7	=7
4a	nach-
4g	-ge-
=8	=8
4f	-ſtellt!
8r}	.
{8f	Bei
=9	=9
8a	Tag
8a	und
8g	auch
16ccL	bei
16b-J	.
=10	=10
4a	Nach-
8g}	-te,
{8f	ſo
=11	=11
8a	thut
8a	man
8g	mir
16ccL	nach-
16b-J	.
=12	=12
4a	-trach-
8g}	-ten.
{8c	Man
=13	=13
4.f	tracht
8a	mir
=14	=14
4.g}	nach
{8b-/	dem
=15	=15
8.aL	Le-
16b-	.
8ccJ	.
8dd	-ben
=16	=16
4.cc}	mein
{16ccL	wie
16b-J	.
=17	=17
8a	bin
8a	ich
8g	doch
16ccL	ein
16b-J	.
=18	=18
4a	ar-
8g}	-mes
{16ccL	Wald-
16b-J	.
=19	=19
4a	-hä,
4g	ſe-
=20	=20
4f	-lein!
8r}	.
==	==
!!!AGN: erzaehlendes Volks - Lied, Sage, Tier - Maerchen, Ballade ?
!!!ONB: ESAC (Essen Associative Code) Database: ERK1
!!!AMT: simple duple
!!!AIN: vox
!!!EED: Helmut Schaffrath
!!!EEV: 1.0
!!!GTL: Thiersage und Pflanzenmaerchen
!!!URL-scan: https://rosdok.uni-rostock.de/mcrviewer/recordIdentifier/rosdok_ppn745146120/iview2/phys_0589.iview2?x=81.16084574254&y=1419.1330288443714&scale=0.6828302752574625&rotation=0&layout=singlePageLayout
!!!ENC: Anna Maria Matuszewska
!!!EEV: 2024/04/12
*-	*-
